X:1
T:Title
%%score { ( 1 4 ) | ( 2 3 ) }
L:1/8
M:4/4
K:Eb
V:1 treble nm="Grand Piano"
V:4 treble 
V:2 bass 
V:3 bass 
V:1
 z4 z2 z[Q:1/4=100] E | E2 EF G2 FE | G B3- B3 B | [DB]2 [DF]>[DF] [DF]2 [EG][FA] | [EG]6 [EB]2 | %5
 [Ge]2 [Ge][Ge] [Ge]2 [GB][Ge] | d c3- c2 cc | [EGB]2 [GB][GB] [B,DF]2 D-[DF] | %8
[M:7/8] E-E-E- E- E3 |[M:1/8] B |[M:4/4] B2 BB B2 B>B |[M:3/4] [Ec]2 [Ec][Ec] B2 |[M:1/4] B>B | %13
[M:4/4] [DB]2 [DF]>[DF] [DF][EG] [FA]2 | G6 EF | G2 G>G A2 A>A |[M:9/8] B2 B- B/B/ c2- cec | %17
[M:4/4] B2 [GB]>[EG] [DF]2 [DG]>[DF] |[M:7/8] E-E-E- E- E3 |] %19
V:2
 z4 z2 z [E,G,] | [E,G,]2 [E,G,][E,A,D] [E,B,E]2 [E,A,E][E,G,] | %2
 [E,B,E] [E,G,E]3- [E,G,E]3 [E,G,E] | [B,,F,]2 [B,,B,]>[B,,B,] [B,,B,]2 [B,,B,][B,,B,] | %4
 [E,B,]6 [E,G,]2 | [E,B,]2 [E,B,][E,B,] [E,B,]2 [E,B,][E,B,] | [A,CA] [A,EA]3- [A,EA]2 AA | %7
 B,2 B,B, B,,2 z A, |[M:7/8] [E,G,]-[E,G,]-[E,G,]- [E,G,]- [E,G,]3 |[M:1/8] [E,G,E] | %10
[M:4/4] [E,G,E]2 [E,G,E][E,G,E] [E,G,E]2 [E,G,E]>[E,G,E] | %11
[M:3/4] [A,,A,]2 [A,,A,][A,,A,] [E,G,E]2 |[M:1/4] [E,G,E]>[E,G,E] | %13
[M:4/4] [B,,F,]2 [B,,B,]>[B,,B,] [B,,B,][B,,B,] [B,,B,]2 | [E,B,E]6 [E,G,][E,A,E] | %15
 [E,B,E]2 [E,B,E]>[E,B,E] [F,B,D]2 [F,B,D]>[F,B,D] | %16
[M:9/8] [G,B,E]2 [G,B,E]- [G,B,E]/[G,B,E]/ [A,E]2- [A,E][A,CE][A,CE] | %17
[M:4/4] [G,E]2 [E,E]>[E,B,] [B,,B,]2 [B,,B,]>[B,,A,] | %18
[M:7/8] [E,G,]-[E,G,]-[E,G,]- [E,G,]- [E,G,]3 |] %19
V:3
 x8 | x8 | x8 | x8 | x8 | x8 | z4 z2 [A,E]2 | z4 z2 B,,2 |[M:7/8] x7 |[M:1/8] x |[M:4/4] x8 | %11
[M:3/4] x6 |[M:1/4] x2 |[M:4/4] x8 | x8 | x8 |[M:9/8] x9 |[M:4/4] x8 |[M:7/8] x7 |] %19
V:4
 x8 | x8 | x8 | x8 | x8 | x8 | x8 | z4 z2 .[B,G]2 |[M:7/8] x7 |[M:1/8] x |[M:4/4] x8 |[M:3/4] x6 | %12
[M:1/4] x2 |[M:4/4] x8 | x8 | x8 |[M:9/8] x9 |[M:4/4] x8 |[M:7/8] x7 |] %19

